common/src/main/resources/files/other/ChefCookbook.svg

<!--
  - The MIT License (MIT)
  -
  - Copyright (c) 2015-2024 Elior "Mallowigi" Boukhobza
  -
  - Permission is hereby granted, free of charge, to any person obtaining a copy
  - of this software and associated documentation files (the "Software"), to deal
  - in the Software without restriction, including without limitation the rights
  - to use, copy, modify, merge, publish, distribute, sublicense, and/or sell
  - copies of the Software, and to permit persons to whom the Software is
  - furnished to do so, subject to the following conditions:
  -
  - The above copyright notice and this permission notice shall be included in all
  - copies or substantial portions of the Software.
  -
  - THE SOFTWARE IS PROVIDED "AS IS", WITHOUT WARRANTY OF ANY KIND, EXPRESS OR
  - IMPLIED, INCLUDING BUT NOT LIMITED TO THE WARRANTIES OF MERCHANTABILITY,
  - FITNESS FOR A PARTICULAR PURPOSE AND NONINFRINGEMENT. IN NO EVENT SHALL THE
  - AUTHORS OR COPYRIGHT HOLDERS BE LIABLE FOR ANY CLAIM, DAMAGES OR OTHER
  - LIABILITY, WHETHER IN AN ACTION OF CONTRACT, TORT OR OTHERWISE, ARISING FROM,
  - OUT OF OR IN CONNECTION WITH THE SOFTWARE OR THE USE OR OTHER DEALINGS IN THE
  - SOFTWARE.
  -->

<svg data-big="true" version="1.1" xmlns="http://www.w3.org/2000/svg" x="0px" y="0px" width="16px" height="16px"
     viewBox="0 0 512 512">
  <path fill="#EA7130"
        d="M203.6526337,276.4676819l-30.0056915,13.1366882c-23.2935181-60.3904572,18.4777832-121.3384705,81.4594421-124.7623138v32.684494C216.6754608,200.1186371,190.3553009,236.6165771,203.6526337,276.4676819z M282.9326477,309.2954102l11.840271,30.503418c22.916748-9.9222107,41.0252991-29.2693481,49.4913025-52.7757263h-36.0936279C302.0643616,296.7755432,293.2395935,304.5686646,282.9326477,309.2954102z M255.1063843,347.1980286V314.513031c-13.1527405-0.7686462-25.5147095-5.9129944-35.4089203-14.7366638l-23.1699066,23.1726685C212.5993805,337.8737793,233.1674652,346.3879089,255.1063843,347.1980286z M294.7661743,172.2562103l-11.8335266,30.4870148c10.3079224,4.7281799,19.1326599,12.5213013,25.2379456,22.2737579h36.216095C335.7817993,201.6215057,317.6298828,182.2830505,294.7661743,172.2562103z M512,225.016983c-4.8381348-34.3578186-17.2740479-71.836853-35.1810303-101.195961l-31.6662903,19.7161179c14.5327148,24.2557526,24.1328125,54.3201447,28.5668945,81.4798431H512z M512,287.0231018h-38.2843018c-27.4516296,162.15625-230.2850647,258.0224304-369.4200134,127.6542664l-26.3754044,26.378479C242.7212524,591.7770996,481.5343323,484.4160461,512,287.0231018z M54.5126648,342.1897888c-10.7732162-25.6184998-16.6562195-53.7358704-17.104641-81.749115H0c0.457101,33.1411743,7.4698396,66.4636536,20.3737793,96.8031311L54.5126648,342.1897888z M254.0338135,92.244545V57.731945c-80.0579681,3.2114105-144.2886353,46.2902412-176.3416443,120.7154999l32.0452805,12.5030518C135.1599884,130.7103729,189.0675201,94.7488632,254.0338135,92.244545z M414.7086792,225.016983h35.0502014C438.2821655,159.8611145,392.624115,97.6922073,331.0562744,72.3847275l-12.5018005,32.0494156C357.1203613,120.0506516,401.1094055,164.8588104,414.7086792,225.016983z M360.8452148,287.0231018c-19.7415466,63.1410217-95.4341125,98.4063721-157.4174042,62.6453552C131.50354,308.1720886,131.50354,203.8678436,203.4277496,162.37146c61.9828644-35.7607117,137.6749725-0.4947815,157.417099,62.6455231h33.2654724c-20.6383057-88.0047302-123.2870483-138.6032104-206.7654877-90.4407196c-93.2716141,53.8126831-93.2716141,189.0747681,0,242.8874512c83.4788361,48.1627502,186.1281586-2.434967,206.7657928-90.4406128H360.8452148z M418.1248779,287.0231018c-17.5898438,72.7634888-82.4347534,129.7788696-157.3695679,131.341156v35.9438782c105.6104736-2.9405518,177.486145-83.3267212,194.0239258-167.2850342H418.1248779z M92.0952148,260.4406433H56.0496826c1.3077393,64.4587097,40.6407471,142.7053223,123.28479,178.0139465l13.3200684-33.2288818C132.0669556,379.0570374,94.6901245,321.7345581,92.0952148,260.4406433z M20.7394409,156.2263031l34.6739502,13.5286865C110.651123,36.9573174,277.0546875,0.2688758,385.6437378,78.9242325l22.3381348-29.9430847C277.5454102-46.2810745,86.7599487,1.6038465,20.7394409,156.2263031z"/>
</svg>

<svg xmlns="http://www.w3.org/2000/svg" width="16" height="16" data-big="true" viewBox="0 0 512 512"><path fill="#EA7130" d="m203.653 276.468-30.006 13.136c-23.294-60.39 18.478-121.338 81.46-124.762v32.685c-38.432 2.592-64.752 39.09-51.454 78.94m79.28 32.827 11.84 30.504c22.917-9.922 41.025-29.27 49.491-52.776h-36.093c-6.107 9.753-14.931 17.546-25.238 22.272m-27.827 37.903v-32.685c-13.152-.769-25.514-5.913-35.409-14.737l-23.17 23.173c16.072 14.925 36.64 23.439 58.58 24.249m39.66-174.942-11.833 30.487c10.308 4.728 19.132 12.522 25.238 22.274h36.216c-8.605-23.395-26.757-42.734-49.62-52.76M512 225.017c-4.838-34.358-17.274-71.837-35.181-101.196l-31.666 19.716c14.532 24.256 24.132 54.32 28.567 81.48zm0 62.006h-38.284C446.264 449.18 243.43 545.046 104.296 414.677L77.92 441.056C242.721 591.777 481.534 484.416 512 287.023M54.513 342.19c-10.774-25.619-16.657-53.736-17.105-81.75H0c.457 33.142 7.47 66.464 20.374 96.804zm199.52-249.945V57.732c-80.057 3.211-144.288 46.29-176.34 120.715l32.044 12.503c25.423-60.24 79.33-96.201 144.297-98.705M414.71 225.017h35.05c-11.477-65.156-57.135-127.325-118.703-152.632l-12.502 32.05c38.566 15.616 82.555 60.424 96.155 120.582m-53.864 62.006c-19.741 63.141-95.434 98.406-157.417 62.645-71.924-41.496-71.924-145.8 0-187.297 61.983-35.76 137.675-.494 157.417 62.646h33.265c-20.638-88.005-123.287-138.603-206.765-90.44-93.272 53.812-93.272 189.074 0 242.887 83.479 48.162 186.128-2.435 206.766-90.44zm57.28 0c-17.59 72.764-82.435 129.779-157.37 131.341v35.944c105.61-2.94 177.486-83.327 194.024-167.285zm-326.03-26.582H56.05c1.307 64.458 40.64 142.705 123.284 178.014l13.32-33.23c-60.587-26.168-97.964-83.49-100.559-144.784M20.74 156.226l34.674 13.529C110.651 36.957 277.055.269 385.643 78.925l22.339-29.944C277.545-46.28 86.76 1.604 20.739 156.226"/></svg>
